brandFactory_export/2.Regular/Velocidad RPM_2Regular.svg

<?xml version="1.0" encoding="UTF-8"?>
<svg width="24px" height="24px" viewBox="0 0 24 24" version="1.1" xmlns="http://www.w3.org/2000/svg" xmlns:xlink="http://www.w3.org/1999/xlink">
    <title>2.Regular/Velocidad RPM_2Regular</title>
    <g id="Symbols" stroke="none" stroke-width="1" fill="none" fill-rule="evenodd">
        <g id="2.Regular/Velocidad-RPM_2Regular" fill="#5CB615" fill-rule="nonzero">
            <path d="M21.7176471,19.3008403 C22.010084,18.1983193 22.1579832,16.9478992 22.1579832,15.5798319 C22.1579832,8.84705882 18.6756303,5.43193277 11.8117647,5.43193277 C4.94789916,5.43193277 1.46890756,8.84369748 1.46890756,15.5798319 C1.46890756,16.9512605 1.61680672,18.2016807 1.90588235,19.3008403 L21.7176471,19.3008403 Z M11.8084034,4.01344538 C19.5260504,4.01344538 23.6033613,8.01344538 23.6033613,15.5798319 C23.6033613,17.2806723 23.3915966,18.8235294 22.9680672,20.1680672 C22.9579832,20.205042 22.9411765,20.2386555 22.9243697,20.2722689 L22.9008403,20.3226891 C22.7764706,20.5680672 22.5277311,20.7193691 22.2521008,20.7193691 L1.35798319,20.7193691 C1.04537815,20.7226891 0.76302521,20.5210084 0.665546218,20.2218487 C0.238655462,18.8638655 0.0201680672,17.3042017 0.0201680672,15.5798319 C0.0201680672,8.01344538 4.09747899,4.01344538 11.8084034,4.01344538 Z M11.8117647,15.3411765 C12.2252101,15.3411765 12.594958,15.5058824 12.8672269,15.7680672 L20.5142857,13.5697479 C20.9008403,13.4588235 21.3008403,13.6739496 21.4117647,14.0504202 C21.5193277,14.4235294 21.3042017,14.8168067 20.9310924,14.9277311 C20.9277311,14.9277311 20.9243697,14.9310924 20.9210084,14.9310924 L13.2840336,17.1260504 C13.1294118,17.8117647 12.5176471,18.2957983 11.8151261,18.2924544 C10.9848739,18.2924544 10.3125925,17.6336134 10.3125925,16.8168067 C10.3092437,16.0033613 10.9815126,15.3445378 11.8117647,15.3411765 L11.8117647,15.3411765 Z M11.794958,9.3512605 C11.3983193,9.35462185 11.0756303,9.03865546 11.0722689,8.64201681 L11.0722689,7.68403361 C11.0722689,7.29411765 11.394958,6.97478992 11.794958,6.97478992 C12.194958,6.97478992 12.5176471,7.29411765 12.5176471,7.68403361 L12.5176471,8.64201681 C12.5176471,9.03529412 12.194958,9.3512605 11.794958,9.3512605 Z M6.30252101,9.10588235 L6.99495798,9.78487395 C7.27058824,10.0537815 7.27731092,10.4941176 7.01176471,10.7731092 L6.99495798,10.789916 C6.85714286,10.9243697 6.67563025,10.9983193 6.48403361,10.9983193 C6.29243697,10.9983193 6.11092437,10.9243697 5.97310924,10.789916 L5.27731092,10.107563 C5.00168067,9.83865546 4.99495798,9.39495798 5.26386555,9.11932773 L5.27731092,9.10588235 C5.56302521,8.8302521 6.01680672,8.8302521 6.30252101,9.10588235 L6.30252101,9.10588235 Z M4.57478992,14.0941176 C4.97478992,14.0941176 5.29747899,14.410084 5.29747899,14.8033613 C5.29747899,15.1932773 4.97478992,15.512605 4.57478992,15.512605 L3.59663866,15.512605 C3.20336134,15.5159664 2.87731092,15.2 2.87394958,14.8033613 C2.87394958,14.410084 3.19663866,14.0941176 3.59663866,14.0941176 L4.57478992,14.0941176 L4.57478992,14.0941176 Z M17.0991597,10.994958 C16.907563,10.994958 16.7226891,10.9210084 16.5882353,10.7865546 C16.312605,10.5176471 16.3058824,10.0773109 16.5714286,9.79831933 L16.5882353,9.78151261 L17.2806723,9.10252101 C17.5663866,8.82689076 18.0201681,8.82689076 18.302521,9.10252101 C18.5781513,9.37142857 18.5848739,9.81512605 18.3159664,10.0907563 L18.302521,10.1042017 L17.610084,10.7831933 C17.4756303,10.9210084 17.2907563,10.994958 17.0991597,10.994958 L17.0991597,10.994958 Z" id="Velocidad-RPM_2Regular"></path>
        </g>
    </g>
</svg>

<svg width="24" height="24" viewBox="0 0 24 24" xmlns="http://www.w3.org/2000/svg"><path d="M21.718 19.3c.292-1.102.44-2.352.44-3.72 0-6.733-3.482-10.148-10.346-10.148S1.469 8.844 1.469 15.58c0 1.371.148 2.622.437 3.72h19.812zm-9.91-15.287c7.718 0 11.795 4 11.795 11.567 0 1.7-.211 3.244-.635 4.588a.569.569 0 01-.044.104l-.023.05a.723.723 0 01-.649.397H1.358a.722.722 0 01-.692-.497C.239 18.864.02 17.304.02 15.58c0-7.567 4.077-11.567 11.788-11.567zm.004 11.328c.413 0 .783.165 1.055.427l7.647-2.198a.722.722 0 01.898.48.712.712 0 01-.48.878c-.004 0-.008.003-.011.003l-7.637 2.195a1.497 1.497 0 01-1.469 1.166c-.83 0-1.502-.658-1.502-1.475-.004-.814.669-1.472 1.499-1.476zm-.017-5.99a.714.714 0 01-.723-.709v-.958c0-.39.323-.71.723-.71.4 0 .723.32.723.71v.958c0 .393-.323.71-.723.71zm-5.492-.245l.692.679c.276.269.282.71.017.988l-.017.017a.728.728 0 01-1.022 0l-.696-.682a.7.7 0 01-.013-.989l.013-.013a.739.739 0 011.026 0zm-1.728 4.988c.4 0 .722.316.722.71 0 .39-.322.709-.722.709h-.978a.717.717 0 01-.723-.71c0-.393.323-.709.723-.709h.978zm12.524-3.099a.722.722 0 01-.51-.208.703.703 0 01-.018-.989l.017-.016.693-.68a.735.735 0 011.022 0 .7.7 0 01.013.989l-.013.013-.693.68a.711.711 0 01-.51.211z" fill="#5CB615" fill-rule="nonzero"/></svg>
